X:2
T:The Wild Irishman
%%VWML:RutherfordSelect-4785-p2-0
F:http://www.vwml.org/record/RutherfordSelect/4785/p2
Z:Transcribed by David Jacobs February 2016
S:12 Selected Country Dances 1772, John Rutherford
L:1/8
M:6/8
K:E
V:1     clef=treble
V:2     clef=bass
V:1 
e2fg2e|a2fg2e|e2f gfe|d3f3|e2fg2e|a2fg2e|egb afd|e3E3:|
bgec3|Bdf fdB|Bdf fdB|f2ga3|bgfc3|Bdf fdB|egb afd|e3E3:|
V:2
E,3E,3|B,,3E,3|E,3E,3|B,,3B,3|E,3E,3|"7"B,,3E,3|"6/4"B,3"5/3"B,,3|E,3E,,3:|
E,3A,3|B,3B,3|B,,3B,,3|"6"D,2E,"6"F,3|"6"G,3A,3|B,3B,3|"6/4"B,3"7/5/3"B,,3|E,3E,,3:|
W:
W:Turn right hands and cast off.|.
W:Turn left hands, the Man fall in at bottom and Wo. at top :|:
W:Foot Six bottom and top then sides .|: :||:
W:Set contrary corners and turn .||. :||:
W:Lead outsides .||: :||:

